src/microsoft-onenote.svg

<svg viewBox="0 0 24 24" fill="none" xmlns="http://www.w3.org/2000/svg">
<path d="M7.83313 3H21.1669C21.627 3 22 3.373 22 3.83312V19.6669C22 20.127 21.627 20.5 21.1669 20.5H7.83313C7.373 20.5 7 20.127 7 19.6669V3.83312C7 3.373 7.373 3 7.83313 3Z" fill="#CA64EA"/>
<path d="M22 3.83312C22 3.373 21.627 3 21.1669 3H7.8325C7.37262 3.00034 7 3.37325 7 3.83312V19.6669C7 20.127 7.373 20.5 7.83313 20.5H17.625L22 7.375V3.83312Z" fill="#CA64EA"/>
<path d="M22 7.375H17.625V11.75L19.813 13.747L22 11.75V7.375Z" fill="#AE4BD5"/>
<path d="M22 11.75H17.625V16.125L19.813 18.247L22 16.125V11.75Z" fill="#9332BF"/>
<path d="M17.625 16.125H22V19.6669C22 20.127 21.627 20.5 21.1669 20.5H17.625V16.125ZM2.83312 6.75H11.1669C11.627 6.75 12 7.123 12 7.58313V15.9169C12 16.377 11.627 16.75 11.1669 16.75H2.83312C2.373 16.75 2 16.377 2 15.9169V7.58313C2 7.123 2.373 6.75 2.83312 6.75Z" fill="#7719AA"/>
<path d="M4.50062 8.625H5.83188L8.11688 12.8325C8.23604 13.0138 8.32562 13.1596 8.38562 13.27H8.40188C8.37005 12.995 8.35752 12.718 8.36438 12.4412V8.625H9.49937V14.875H8.25313L5.87 10.7312C5.7783 10.5948 5.69723 10.4514 5.6275 10.3025H5.60625C5.63393 10.605 5.6454 10.9088 5.64062 11.2125V14.875H4.5L4.50062 8.625Z" fill="white"/>
</svg>

<svg xmlns="http://www.w3.org/2000/svg" fill="none" viewBox="0 0 24 24"><path fill="#CA64EA" d="M7.833 3h13.334c.46 0 .833.373.833.833v15.834c0 .46-.373.833-.833.833H7.833A.833.833 0 0 1 7 19.667V3.833c0-.46.373-.833.833-.833Z"/><path fill="#CA64EA" d="M22 3.833A.833.833 0 0 0 21.167 3H7.832A.833.833 0 0 0 7 3.833v15.834c0 .46.373.833.833.833h9.792L22 7.375V3.833Z"/><path fill="#AE4BD5" d="M22 7.375h-4.375v4.375l2.188 1.997L22 11.75V7.375Z"/><path fill="#9332BF" d="M22 11.75h-4.375v4.375l2.188 2.122L22 16.125V11.75Z"/><path fill="#7719AA" d="M17.625 16.125H22v3.542c0 .46-.373.833-.833.833h-3.542v-4.375ZM2.833 6.75h8.334c.46 0 .833.373.833.833v8.334c0 .46-.373.833-.833.833H2.833A.833.833 0 0 1 2 15.917V7.583c0-.46.373-.833.833-.833Z"/><path fill="#fff" d="M4.5 8.625h1.332l2.285 4.207c.119.182.209.328.269.438h.016a5.931 5.931 0 0 1-.038-.829V8.625H9.5v6.25H8.253L5.87 10.731a3.204 3.204 0 0 1-.242-.428h-.022c.028.302.04.606.035.91v3.662H4.5v-6.25Z"/></svg>
